X:1
T:Title
%%score { 1 | 2 }
L:1/8
Q:1/4=130
M:2/2
K:Bb
V:1 treble nm="Grand Piano"
V:2 bass 
V:1
 [DB]4 [FA]2 [EG]2 | [DF]4 [B,D]2 [DF]2 | G2 G2 E2 G2 | [DF]8 | [DB]4 [FA]2 [EG]2 | %5
w: Thomas~J.~Cook * *|||||
 [DF]4 [FB]2 [FB]2 | [Gc]2 [Gc]2 [FB]2 [EA]2 | [DB]8 | c4 d2 c2 | c4 A2 c2 | %10
w: |||||
 [=EB]2 [EB]2 [EG]2 [GB]2 | A8 | c4 d2 c2 | c4 A2 c2 | [=Ec]2 [GB]2 [FA]2 [EG]2 | F8 | %16
w: ||||||
 [DB]4 [FA]2 [EG]2 | [DF]4 [B,D]2 [DF]2 | G2 G2 E2 G2 | [DF]8 | [DB]4 [FA]2 [EG]2 | %21
w: |||||
 [DF]4 [FB]2 [FB]2 | [Gc]2 [Gc]2 [FB]2 [EA]2 |[M:8/4] [DB]8 z8 |] %24
w: |||
V:2
 [B,,F,]4 [B,,B,]2 [B,,B,]2 | [B,,B,]4 [B,,F,]2 [B,,B,]2 | [E,B,E]2 [E,B,E]2 [E,G,B,]2 [E,B,E]2 | %3
 [B,,B,]8 | [B,,F,]4 [B,,B,]2 [B,,B,]2 | [B,,B,]4 [D,B,]2 [D,B,]2 | [E,G,]2 [E,E]2 [F,D]2 [F,C]2 | %7
 [B,,B,]8 | [F,A,F]4 [F,B,F]2 [F,A,F]2 | [F,A,F]4 [F,CF]2 [F,A,F]2 | %10
 [C,G,]2 [C,G,]2 [C,C]2 [C,C]2 | [F,CF]8 | [F,A,F]4 [F,B,F]2 [F,A,F]2 | [F,A,F]4 [F,CF]2 [F,A,F]2 | %14
 [C,G,]2 [C,C]2 [C,C]2 [C,B,]2 | [F,A,]8 | [B,,F,]4 [B,,B,]2 [B,,B,]2 | %17
 [B,,B,]4 [B,,F,]2 [B,,B,]2 | [E,B,E]2 [E,B,E]2 [E,G,B,]2 [E,B,E]2 | [B,,B,]8 | %20
 [B,,F,]4 [B,,B,]2 [B,,B,]2 | [B,,B,]4 [D,B,]2 [D,B,]2 | [E,G,]2 [E,E]2 [F,D]2 [F,C]2 | %23
[M:8/4] [B,,B,]8 z8 |] %24

